outputs/icons/action/open_in_new_window_sharp.svg

<svg xmlns="http://www.w3.org/2000/svg" width="1200" height="1200" fill="none"><g clip-path="url(#a)"><path fill="#000" d="M950 950H250V250h350V150H150v900h900V600H950zM700 150v100h179.5L388 741.5l70.5 70.5L950 320.5V500h100V150z"/></g><defs><clipPath id="a"><path fill="#fff" d="M0 0h1200v1200H0z"/></clipPath></defs></svg>

<svg width="1200" height="1200" viewBox="0 0 1200 1200" fill="none" xmlns="http://www.w3.org/2000/svg"><g clip-path="url(#clip0_117_810)"><path d="M950 950H250V250H600V150H150V1050H1050V600H950V950ZM700 150V250H879.5L388 741.5L458.5 812L950 320.5V500H1050V150H700Z" fill="black"/></g><defs><clipPath id="clip0_117_810"><path width="24" fill="white" d="M0 0H1200V1200H0V0z"/></clipPath></defs></svg>
